X: 1
T: Lambert's
M: 6/8
L: 1/8
K: D
| ~F3 EFE | DFA d2 A | ded cAG | FAF GFE |
| ~F3 EFE | DFA d2 f | edc | ABc |1 dfe d2 A :|2 dfe  d2 e ||
| f2 a gfe | fdB AB=c | B2 G EFG | AFD FED |
| f2 a gfe | fdB AFA | Bcd ecA |1 dfe d2 e :|2 dfe d2 A ||
